X:1
T:Trewen, 88.88.88.88 D
T:Trewen, 88.88.88.88 D
T:David Emlyn Evans (1843-1913)
T:Public Domain Courtesy of the Cyber Hymnal™
C:David Emlyn Evans (1843-1913)
Z:Public Domain
Z:Courtesy of the Cyber Hymnal™
%%score ( 1 2 ) ( 3 4 )
L:1/8
Q:1/4=125
M:4/4
K:G
V:1 treble 
V:2 treble 
V:3 bass 
V:4 bass 
V:1
 [B,E]2 | [EG]4 [^DF]2 E2 | [B,^D]4 [B,E]2 [B,F]2 | [B,E]6 [^DF]2 | [EG]4 F2 [EG]2 | %5
 [EA]4 [EG]2 [EA]2 | [^DB]6 E2 | [EG]4 [^DF]2 [B,E]2 | ^D4 E2 [=DF]2 | [DG]6 [DA]2 | %10
 [DB]4 [DA]2 [B,G]2 | [DA]4 [DB]2 [CA]2 | [B,G]6 B2 | B4 G2 E2 | [Ec]4 [EB]2 [EA]2 | [^DB]6 B2 | %16
 B4 G2 E2 | e4 [Fd]2 [E^c]2 | [Fd]6 [Ac]2 | [GB]4 [FA]2 [EG]2 | [^DF]4 [EG]2 [FA]2 | [EG]6 [EG]2 | %22
 [EG]4 [CF]2 [CE]2 | [B,^D]4 [B,E]2 [B,F]2 | [B,E]6 |] %25
V:2
 x2 | x6 E2 | x8 | x8 | x4 F2 x2 | x8 | x6 E2 | x8 | (C2 A,2) E2 x2 | x8 | x8 | x8 | x6 B2 | %13
 B4 G2 E2 | x8 | x6 B2 | B4 G2 E2 | (E2 FG) x4 | x8 | x8 | x8 | x8 | x8 | x8 | x6 |] %25
V:3
 [E,G,]2 | [E,B,]4 [F,A,]2 [G,B,]2 | [F,A,]4 [E,G,]2 [^D,F,]2 | [E,G,]6 [B,,B,]2 | %4
 [E,B,]4 [^D,C]2 [E,B,]2 | [C,A,]4 [B,,B,]2 [C,E,]2 | [B,,F,]6 [E,G,]2 | B,4 [A,B,]2 [G,B,]2 | %8
 (A,2 C2) [G,B,]2 [A,C]2 | [G,B,]6 [F,A,]2 | G,4 [D,F,]2 E,2 | [D,F,]4 [D,F,]2 [D,F,]2 | %12
 [G,,G,]6 B,2 | B,4 G,2 E,2 | [A,,A,]4 [B,,G,]2 [C,A,]2 | [B,,F,]6 B,2 | B,4 G,2 E,2 | %17
 [G,B,]4 A,2 [A,,A,]2 | [D,A,]6 [F,D]2 | [G,D]4 [A,C]2 [^A,E]2 | B,4 [B,,B,]2 [B,,^D]2 | %21
 [C,E]6 [B,,B,]2 | [A,,C]4 [A,,C]2 [A,,F,]2 | [B,,F,]4 [B,,G,]2 [B,,A,]2 | [E,G,]6 |] %25
V:4
 x2 | x8 | x8 | x8 | x8 | x8 | x8 | (E,2 B,2) x4 | F,4 x4 | x8 | G,4 E,2 x2 | x8 | x6 B,2 | %13
 B,4 G,2 E,2 | x8 | x6 B,2 | B,4 G,2 E,2 | x4 A,2 x2 | x8 | x8 | B,4 x4 | x8 | x8 | x8 | x6 |] %25

